X: 25173
T: Major Mackie
R: jig
M: 6/8
K: Dmajor
|:A|ABc dcd|B2e e2d|c2a a^ga|f2d dcB|
ABc dcd|B2e e2d|c2a gfe|d3 d2:|
|:d/e/|f3 def|g3 g2f|e3 cde|f3 f2e|
d3 def|g2B e2d|c2a gfe|d3 d2:|

